X:16
T:Kinrara Strathspey
C: William Marshall
R: strathspey
M:C|
L:1/8
Z: Jason R. Fruit <JasonFruit@gmail.com>
K:Bb
F | B>cBd FB G/F/E/D/ | B<FB>d cCCA | !trill!B>cBd FB G/F/E/D/ | E<g !trill!f>e dBB :|
f | df e/d/c/B/ bBeg | !trill!f>g e/d/c/B/ {Bc}d<c- cd/e/ | fBdB gBeg | FB {d}!trill!(cB/c/) {Bc}dBBd |
f2 {ga}(bB) gBfB | e>c e/d/c/B/ A(c{dcB}) (cd) | B<FG<B F<B G/F/E/D/ | E<g {g}!trill!f>e d<B [BD] |]
%%text NB. This Strathspey was Composed by Mr. Marshall for the Duchess of Gordon, but is 
%%text Published by Mr. Gow in his 4th Book, where he has changed its name, and called it
%%text the Countess of Dalkeith

